X: 327
T:Maruntica de la Cajvana
O:Romania
M:2/4
L:1/16
Q:1/4=120
K:D
%%MIDI program 71 % Clarinet
A2EA cAec|A2EA cAec|A2EA cAec|cdec cdec|
A2EA cAec|A2EA cAec|A2EA cAec|cdec A2z2::
dcBA cAEA|dcBA cAeA|dcBA cAeA|dcBA cAEA|
dcBA cAEA|dcBA cAeA|dcBA cAeA|dcBA cAE2:|\
e8|a8|
e^d^f^g ae^cA|dcBA cAEA|e^d^f^g ae^cA|dcBA cAEA|
e^d^f^g ae^cA|dcBA cAEA|e^d^f^g ae^cA|dcBA cAA2|
dcBA cAEA|dcBA cAeA|dcBA cAeA|dcBA cAEA|
dcBA cAEA|dcBA cAeA|dcBA cAeA|dcBA cAE2:|


